ui/static/images/pixels-right.svg

<svg width="135" height="103" viewBox="0 0 135 103" xmlns="http://www.w3.org/2000/svg"><g fill="none" fill-rule="evenodd"><g fill="#352134"><g><g><path d="M30 88h15v15H30zM45 88h15v15H45zM60 88h15v15H60zM30 73h15v15H30zM60 73h15v15H60zM75 73h15v15H75zM90 58h15v15H90zM90 73h15v15H90zM105 88h15v15h-15zM120 88h15v15h-15zM90 88h15v15H90zM30 58h15v15H30zM45 58h15v15H45zM30 43h15v15H30zM30 28h15v15H30zM45 28h15v15H45zM45 43h15v15H45zM60 58h15v15H60zM75 43h15v15H75zM60 43h15v15H60zM30 15h15v15H30zM30 0h15v15H30zM15 15h15v15H15zM0 15h15v15H0z"/></g></g></g></g></svg>

<svg width="135" height="103" viewBox="0 0 135 103" xmlns="http://www.w3.org/2000/svg"><g fill="none" fill-rule="evenodd"><g fill="#352134"><g><g><path id="Rectangle-12" d="M30 88H45V103H30z" transform=""/><path id="Rectangle-12" d="M45 88H60V103H45z"/><path id="Rectangle-12" d="M60 88H75V103H60z"/><path id="Rectangle-12" d="M30 73H45V88H30z"/><path id="Rectangle-12" d="M60 73H75V88H60z"/><path id="Rectangle-12" d="M75 73H90V88H75z"/><path id="Rectangle-12" d="M90 58H105V73H90z"/><path id="Rectangle-12" d="M90 73H105V88H90z"/><path id="Rectangle-12" d="M105 88H120V103H105z"/><path id="Rectangle-12" d="M120 88H135V103H120z"/><path id="Rectangle-12" d="M90 88H105V103H90z"/><path id="Rectangle-12" d="M30 58H45V73H30z"/><path id="Rectangle-12" d="M45 58H60V73H45z"/><path id="Rectangle-12" d="M30 43H45V58H30z"/><path id="Rectangle-12" d="M30 28H45V43H30z"/><path id="Rectangle-12" d="M45 28H60V43H45z"/><path id="Rectangle-12" d="M45 43H60V58H45z"/><path id="Rectangle-12" d="M60 58H75V73H60z"/><path id="Rectangle-12" d="M75 43H90V58H75z"/><path id="Rectangle-12" d="M60 43H75V58H60z"/><path id="Rectangle-12" d="M30 15H45V30H30z"/><path id="Rectangle-12" d="M30 0H45V15H30z"/><path id="Rectangle-12" d="M15 15H30V30H15z"/><path d="M0 15H15V30H0z"/></g></g></g></g></svg>
